X: 1
T:Contentment is Wealth
R:jig
C:Trad
S:as recorded by Hugh Gillespie in June of 1939 in New York
N:Similar to version arranged by Paddy O'Brien (see abc index). Very diffe
N:nt from tune \#729 in O'Neill's 1,850.
D:Green Linnet 3066 _Hugh Gillespie: Classic Recordings of Irish Tradition
D:Fiddle Music_
Z:transcribed by Alan Ng August 2, 1996
M:6/8
L:1/8
K:EDor
E3 -E2F|:GFG Eed|BAB E2G|FEF DdB|!
AFD D2f|gfe edB|BAB dcd|BAB DEF|!
GEE E2::f|gfe gbe|gab bag|fdd add|!
fga agf|gfe edB|BAB dcd|BAB DEF|!
GEE E2:|!
